X:567
T:Miss Mary MacDonald
R:Reel
B:The Athole Collection
M:C|
L:1/8
K:G Minor
B|GGBG AFFA|GGBG AGBG|EGBG AFFA|GcBA G3:|
|:B|GGgB A=FFA|GGgd gagd|fgfc AFFA|GcBA G2G:|

